public/assets/logos/headerLogo.svg

<svg width="170" height="25" viewBox="0 0 170 25" fill="none" xmlns="http://www.w3.org/2000/svg">
<g clip-path="url(#clip0_73_1110)">
<path d="M154.1 19.3002C153.3 19.3002 152.3 18.9002 152.3 16.8002C152.3 14.7002 153.2 14.3002 154.1 14.3002H164.5V19.2002L154.1 19.3002ZM162.1 0.200195H148.3V5.4002H161.8C163.8 5.4002 164.6 6.3002 164.6 8.6002V9.4002H153.4C149.1 9.4002 147 11.5002 147 16.4002V17.5002C147 22.5002 149.2 24.5002 153.6 24.5002H170V8.6002C169.9 2.5002 168 0.200195 162.1 0.200195Z" fill="#0059BC"/>
<path d="M125.3 0.200195V5.4002H133.1V24.5002H138.6V5.4002H146.4V0.200195H125.3Z" fill="#0059BC"/>
<path d="M108.4 19.3002C107.6 19.3002 106.6 18.9002 106.6 16.8002C106.6 14.7002 107.5 14.3002 108.4 14.3002H118.8V19.2002L108.4 19.3002ZM116.4 0.200195H102.6V5.4002H116.1C118.1 5.4002 118.9 6.3002 118.9 8.6002C118.9 8.6002 118.9 9.30019 118.9 9.4002H107.7C103.4 9.4002 101.3 11.5002 101.3 16.4002V17.5002C101.3 22.5002 103.5 24.5002 107.9 24.5002H124.3V8.6002C124.3 2.5002 122.2 0.200195 116.4 0.200195Z" fill="#0059BC"/>
<path d="M91 0.200195H76.3V24.4002H91.3C97.2 24.5002 99.1 21.5002 99.1 15.9002V8.8002C99.1 2.4002 96.6 0.200195 91 0.200195ZM93.5 16.1002C93.5 18.4002 92.7 19.3002 90.7 19.3002H81.8V5.5002H90.7C92.7 5.5002 93.5 6.4002 93.5 8.7002V16.1002Z" fill="#0059BC"/>
<path d="M48.6 0.200195V5.4002H56.4V24.5002H61.9V5.4002H69.7V0.200195H48.6Z" fill="#0059BC"/>
<path d="M25.8 0.200195V5.4002H33.6V24.5002H39.1V5.4002H46.9V0.200195H25.8Z" fill="#0059BC"/>
<path d="M18 18.7C17.9 18.5 10.5 4.1 9.6 2.8C8.6 1.1 7.4 0 4.9 0C2.7 0 0 1 0 6.4V24.5H5.5V9.4C5.5 8.3 5.4 6.7 5.4 6.4C5.4 6.2 5.4 5.9 5.5 5.8C5.7 5.7 5.8 5.9 5.9 6C6 6.1 12.9 19.7 14.3 21.9C15.3 23.5 16.6 24.7 19 24.7C21.2 24.7 23.9 23.7 23.9 18.3V0.2H18.4V15.3C18.4 16.4 18.5 18 18.5 18.3C18.5 18.5 18.5 18.8 18.4 18.9C18.3 19.1 18.2 18.9 18 18.7Z" fill="#0059BC"/>
</g>
<defs>
<clipPath id="clip0_73_1110">
<rect width="170" height="25" fill="white"/>
</clipPath>
</defs>
</svg>

<?xml version="1.0"?>
<svg width="170" height="24.999999999999996" xmlns="http://www.w3.org/2000/svg" xmlns:svg="http://www.w3.org/2000/svg">
 <defs>
  <clipPath id="clip0_73_1110">
   <rect fill="white" height="25" id="svg_1" width="170"/>
  </clipPath>
 </defs>
 <g class="layer">
  <title>Layer 1</title>
  <g clip-path="url(#clip0_73_1110)" id="svg_2">
   <path d="m154.1,19.3c-0.8,0 -1.8,-0.4 -1.8,-2.5c0,-2.1 0.9,-2.5 1.8,-2.5l10.4,0l0,4.9l-10.4,0.1zm8,-19.1l-13.8,0l0,5.2l13.5,0c2,0 2.8,0.9 2.8,3.2l0,0.8l-11.2,0c-4.3,0 -6.4,2.1 -6.4,7l0,1.1c0,5 2.2,7 6.6,7l16.4,0l0,-15.9c-0.1,-6.1 -2,-8.4 -7.9,-8.4z" fill="#0059BC" id="svg_3"/>
   <path d="m125.3,0.2l0,5.2l7.8,0l0,19.1l5.5,0l0,-19.1l7.8,0l0,-5.2l-21.1,0z" fill="#0059BC" id="svg_4"/>
   <path d="m108.4,19.3c-0.8,0 -1.8,-0.4 -1.8,-2.5c0,-2.1 0.9,-2.5 1.8,-2.5l10.4,0l0,4.9l-10.4,0.1zm8,-19.1l-13.8,0l0,5.2l13.5,0c2,0 2.8,0.9 2.8,3.2c0,0 0,0.7 0,0.8l-11.2,0c-4.3,0 -6.4,2.1 -6.4,7l0,1.1c0,5 2.2,7 6.6,7l16.4,0l0,-15.9c0,-6.1 -2.1,-8.4 -7.9,-8.4z" fill="#0059BC" id="svg_5"/>
   <path d="m91,0.2l-14.7,0l0,24.2l15,0c5.9,0.1 7.8,-2.9 7.8,-8.5l0,-7.1c0,-6.4 -2.5,-8.6 -8.1,-8.6zm2.5,15.9c0,2.3 -0.8,3.2 -2.8,3.2l-8.9,0l0,-13.8l8.9,0c2,0 2.8,0.9 2.8,3.2l0,7.4z" fill="#0059BC" id="svg_6"/>
   <path d="m48.6,0.2l0,5.2l7.8,0l0,19.1l5.5,0l0,-19.1l7.8,0l0,-5.2l-21.1,0z" fill="#0059BC" id="svg_7"/>
   <path d="m27.5,8.69l-0.65,-7.9l4.32,-0.08l1.7,19.67l13.91,0.08l0.24,3.86l-19.04,0.32l-0.08,-8.19l-0.4,-7.76z" fill="#0059BC" id="svg_8"/>
   <path d="m18.4,18.7c-0.1,-0.2 -7.5,-14.6 -8.4,-15.9c-1,-1.7 -5.03,-1.83 -7.53,-1.83c-2.2,0 -2.07,0.03 -2.07,5.43l0,18.1l5.99,0.08l-0.49,-15.18c0,-1.1 -0.1,-2.7 -0.1,-3c0,-0.2 0,-0.5 0.1,-0.6c0.2,-0.1 0.3,0.1 0.4,0.2c0.1,0.1 7,13.7 8.4,15.9c1,1.6 2.3,2.8 4.7,2.8c2.2,0 4.9,-1 4.9,-6.4l0,-18.1l-5.5,0l0,15.1c0,1.1 0.1,2.7 0.1,3c0,0.2 0,0.5 -0.1,0.6c-0.1,0.2 -0.2,0 -0.4,-0.2z" fill="#0059BC" id="svg_9" transform="rotate(90.056, 12.3535, 12.45)"/>
  </g>
 </g>
</svg>
